_includes/icons/ios-table.svg

<svg fill="#666" height="50" viewBox="0 0 50 50" width="50" xmlns="http://www.w3.org/2000/svg"><path d="m10.585938 11-10.20507862 10.205078a1.0001 1.0001 0 0 0 -.19140626.191406l-.18945312.189454v.246093a1.0001 1.0001 0 0 0 0 .326172v5.841797h3v22h6v-22h2v15h6v-15h16v15h6v-15h2v22h6v-22h3v-5.832031a1.0001 1.0001 0 0 0 0-.326172v-.255859l-.193359-.19336a1.0001 1.0001 0 0 0 -.183594-.185547 1.0001 1.0001 0 0 0 -.005859-.003906l-10.203126-10.203125h-.414062zm.828124 2h27.171876l8 8h-43.1718755zm-9.414062 10h46v3h-1.832031a1.0001 1.0001 0 0 0 -.326172 0h-3.6875a1.0001 1.0001 0 0 0 -.169922-.013672 1.0001 1.0001 0 0 0 -.144531.013672h-3.671875a1.0001 1.0001 0 0 0 -.326172 0h-3.6875a1.0001 1.0001 0 0 0 -.169922-.013672 1.0001 1.0001 0 0 0 -.144531.013672h-17.671875a1.0001 1.0001 0 0 0 -.326172 0h-3.6875a1.0001 1.0001 0 0 0 -.169922-.013672 1.0001 1.0001 0 0 0 -.144531.013672h-3.6718752a1.0001 1.0001 0 0 0 -.3261719 0h-3.6875a1.0001 1.0001 0 0 0 -.1699219-.013672 1.0001 1.0001 0 0 0 -.1445312.013672h-1.8398438zm3 5h2v20h-2zm8 0h2v13h-2zm22 0h2v13h-2zm8 0h2v20h-2z"/></svg>

<svg xmlns="http://www.w3.org/2000/svg" width="50" height="50" viewBox="0 0 50 50" fill="#666"><path style="line-height:normal;text-indent:0;text-align:start;text-decoration-line:none;text-decoration-style:solid;text-decoration-color:#000;text-transform:none;block-progression:tb;isolation:auto;mix-blend-mode:normal" d="M 10.585938 11 L 0.38085938 21.205078 A 1.0001 1.0001 0 0 0 0.18945312 21.396484 L 0 21.585938 L 0 21.832031 A 1.0001 1.0001 0 0 0 0 22.158203 L 0 28 L 3 28 L 3 50 L 9 50 L 9 28 L 11 28 L 11 43 L 17 43 L 17 28 L 33 28 L 33 43 L 39 43 L 39 28 L 41 28 L 41 50 L 47 50 L 47 28 L 50 28 L 50 22.167969 A 1.0001 1.0001 0 0 0 50 21.841797 L 50 21.585938 L 49.806641 21.392578 A 1.0001 1.0001 0 0 0 49.623047 21.207031 A 1.0001 1.0001 0 0 0 49.617188 21.203125 L 39.414062 11 L 39 11 L 10.585938 11 z M 11.414062 13 L 38.585938 13 L 46.585938 21 L 3.4140625 21 L 11.414062 13 z M 2 23 L 48 23 L 48 26 L 46.167969 26 A 1.0001 1.0001 0 0 0 45.841797 26 L 42.154297 26 A 1.0001 1.0001 0 0 0 41.984375 25.986328 A 1.0001 1.0001 0 0 0 41.839844 26 L 38.167969 26 A 1.0001 1.0001 0 0 0 37.841797 26 L 34.154297 26 A 1.0001 1.0001 0 0 0 33.984375 25.986328 A 1.0001 1.0001 0 0 0 33.839844 26 L 16.167969 26 A 1.0001 1.0001 0 0 0 15.841797 26 L 12.154297 26 A 1.0001 1.0001 0 0 0 11.984375 25.986328 A 1.0001 1.0001 0 0 0 11.839844 26 L 8.1679688 26 A 1.0001 1.0001 0 0 0 7.8417969 26 L 4.1542969 26 A 1.0001 1.0001 0 0 0 3.984375 25.986328 A 1.0001 1.0001 0 0 0 3.8398438 26 L 2 26 L 2 23 z M 5 28 L 7 28 L 7 48 L 5 48 L 5 28 z M 13 28 L 15 28 L 15 41 L 13 41 L 13 28 z M 35 28 L 37 28 L 37 41 L 35 41 L 35 28 z M 43 28 L 45 28 L 45 48 L 43 48 L 43 28 z"/></svg>
